X:25
T:score119
L:1/8
Q:1/4=96
M:3/4
I:linebreak $
K:Gmin
!p! z (B dG) ^F2 | G2 z2 z2 | z (B cG) A2 | B2 z2 z2 |$ z d ((e/d/))c!f! !>!=B2 | c3!p! (.B .B.B) | %6
 !>!B3 (A/G/ ^F>G | G2) z2 z2 |] %8
